src/components/Icon/svg-icon/main/formatting-paragraph-center.svg

<svg xmlns="http://www.w3.org/2000/svg" width="24" height="24"><path fill="#677078" d="M7 15v2h10v-2H7zm-4 6h18v-2H3v2zm0-8h18v-2H3v2zm4-6v2h10V7H7zM3 3v2h18V3H3z"/></svg>

<svg xmlns="http://www.w3.org/2000/svg" width="24" height="24" viewBox="0 0 24 24">
  <path fill="#677078" d="M7,15 L7,17 L17,17 L17,15 L7,15 Z M3,21 L21,21 L21,19 L3,19 L3,21 Z M3,13 L21,13 L21,11 L3,11 L3,13 Z M7,7 L7,9 L17,9 L17,7 L7,7 Z M3,3 L3,5 L21,5 L21,3 L3,3 Z"/>
</svg>
